src/images/svg/careers/map.svg

<svg width="12" height="17" viewBox="0 0 12 17" fill="none" xmlns="http://www.w3.org/2000/svg">
<path d="M6 0.64209C9.31625 0.64209 12 3.38683 12 6.76709C12 7.84235 11.794 8.77364 11.357 9.71602C10.9658 10.5596 10.4031 11.4037 9.46437 12.6074C9.35807 12.7437 9.08011 13.0909 8.72791 13.5298L8.48318 13.8347C8.39865 13.94 8.31152 14.0485 8.22287 14.1589L6.39383 16.4501C6.19364 16.7061 5.80636 16.7061 5.60617 16.4501C5.34338 16.1142 4.88874 15.545 4.40664 14.9435L4.04249 14.4895C3.73902 14.1113 3.44089 13.7402 3.18821 13.4252L2.32558 12.3359C1.51132 11.2738 1.00414 10.4947 0.643038 9.71602C0.206005 8.77364 0 7.84235 0 6.76709C0 3.38683 2.68375 0.64209 6 0.64209ZM6 1.64209C3.24112 1.64209 1 3.93415 1 6.76709C1 7.69684 1.17425 8.48457 1.55023 9.2953C1.90237 10.0546 2.42836 10.8438 3.32417 11.9924L6 15.3351L8.27555 12.4954L8.87608 11.7336C9.65153 10.7226 10.1247 9.99622 10.4498 9.2953C10.8257 8.48457 11 7.69684 11 6.76709C11 3.93415 8.75888 1.64209 6 1.64209ZM6 3.64209C7.65685 3.64209 9 4.98524 9 6.64209C9 8.29894 7.65685 9.64209 6 9.64209C4.34315 9.64209 3 8.29894 3 6.64209C3 4.98524 4.34315 3.64209 6 3.64209ZM6 4.64209C4.89543 4.64209 4 5.53752 4 6.64209C4 7.74666 4.89543 8.64209 6 8.64209C7.10457 8.64209 8 7.74666 8 6.64209C8 5.53752 7.10457 4.64209 6 4.64209Z" fill="#FF444F"/>
</svg>

<svg width="12" height="17" fill="none" xmlns="http://www.w3.org/2000/svg"><path d="M6 .642c3.316 0 6 2.745 6 6.125a6.754 6.754 0 0 1-.643 2.949c-.391.844-.954 1.688-1.893 2.891-.106.137-.384.484-.736.923l-.245.305-.26.324-1.83 2.291a.5.5 0 0 1-.787 0 197.84 197.84 0 0 0-1.2-1.506l-.364-.455-.854-1.064-.862-1.09c-.815-1.061-1.322-1.84-1.683-2.619A6.754 6.754 0 0 1 0 6.767C0 3.387 2.684.642 6 .642Zm0 1c-2.759 0-5 2.292-5 5.125 0 .93.174 1.718.55 2.528.352.76.878 1.549 1.774 2.697L6 15.335l2.276-2.84.6-.761c.776-1.011 1.249-1.738 1.574-2.439.376-.81.55-1.598.55-2.528 0-2.833-2.241-5.125-5-5.125Zm0 2a3 3 0 1 1 0 6 3 3 0 0 1 0-6Zm0 1a2 2 0 1 0 0 4 2 2 0 0 0 0-4Z" fill="#FF444F"/></svg>
